packages/astro-components-stencil/src/icons/headset-mic.svg

<svg width="24" height="24" viewBox="0 0 24 24" fill="none" xmlns="http://www.w3.org/2000/svg">
<path d="M11.4 1.01999C6.62 1.32999 3 5.51999 3 10.31V17C3 18.66 4.34 20 6 20H7C8.1 20 9 19.1 9 18V14C9 12.9 8.1 12 7 12H5V10.29C5 6.44999 7.96 3.10999 11.79 2.99999C15.76 2.88999 19 6.05999 19 9.99999V12H17C15.9 12 15 12.9 15 14V18C15 19.1 15.9 20 17 20H19V21H13C12.45 21 12 21.45 12 22C12 22.55 12.45 23 13 23H18C19.66 23 21 21.66 21 20V9.99999C21 4.82999 16.64 0.67999 11.4 1.01999Z" fill="black"/>
</svg>

<svg xmlns="http://www.w3.org/2000/svg" viewBox="0 0 24 24"><g xmlns="http://www.w3.org/2000/svg" id="headset-mic" fill-rule="nonzero">
            <path d="M11.4 1.02C6.62 1.33 3 5.52 3 10.31V17c0 1.66 1.34 3 3 3h1c1.1 0 2-.9 2-2v-4c0-1.1-.9-2-2-2H5v-1.71C5 6.45 7.96 3.11 11.79 3A6.999 6.999 0 0119 10v2h-2c-1.1 0-2 .9-2 2v4c0 1.1.9 2 2 2h2v1h-6c-.55 0-1 .45-1 1s.45 1 1 1h5c1.66 0 3-1.34 3-3V10c0-5.17-4.36-9.32-9.6-8.98z"/>
        </g></svg>
